X: 1331
T: Charlie Kyle's Jig Set No 3
B: australian traditional tunes wiki
M:6/8
L:1/8
R: Jig
Q: 3/8=100
K:A
V:1 
A|:"D"F2A"A"E2A|"D"F2A"E7"E2B|"D"AAA "E7"BBB|"A"c2AA3|
"D"F2A"A"E2A|"D"F2A"E7"E2B|"D"AAA "E7"BBB|1"A"c2AA2A:|2"A"c2AA2e||
|:"A"eee "D"f2e|"A"e2e c2c/c/|e2e"D"d2d|"E7"B3B2A|
"A"A2e"E7"e2e|"A"c2e"E7"e2(3e/f/g/|"A"a3A3|1"D"F2A"A"E2e:|2"D"F2A"A"A3||
% abcbook-tune_id 6342d53a8e74a9c9cfb7ec82


% abcbook-boost 0
% abcbook-tablature 
% abcbook-transpose 
% abcbook-lastupdated 1665324359480
% abcbook-soundfonts 
% abcbook-repeats 1
% NFF Book 2014

